X:1
T:Title
%%score { ( 1 3 4 ) | ( 2 5 ) }
L:1/8
M:4/4
K:Eb
V:1 treble nm="Grand Piano"
V:3 treble 
V:4 treble 
V:2 bass 
V:5 bass 
V:1
 z4 z2 z[Q:1/4=100] C | z4 G4 |[M:7/8] D/EF<ED/ C3 |[M:1/8] C |[M:4/4] z4 G4 |[M:7/8] D/EF<ED/ C3 | %6
[M:1/8] z |[M:4/4] [Fc]>[FB] [FA]>[FG] [DF]>E D>C | [DG]8 | %9
[M:9/8] [ce]2 [ce]- [ce]/[ce]<[=Bd][Bd]/ [Ec]3 | [Gc]>cd- d/d<cB/ A3 | %11
[M:4/4] [FA]>[FA] [FA]>[FA] [DG]2 [=B,F=B]2 | [Ec]4- [Ec]>G G>A | z2 z z/ F/ z2 z z/ D/ | %14
 z4 z2 z z/ G/ | [FA]2 z2 A,2 z z/ A/ | z2 [EG]6 | z2 [Gce]4 z2 | [F=B]2 [EGc]6 |] %19
V:2
 z8 | [C,,C,]2 [E,G,]2 [C,,C,]2 E,2 |[M:7/8] [G,,G,]2 [C,E,]2 C, G,,C,, |[M:1/8] z | %4
[M:4/4] [C,,C,]2 [E,G,]2 [C,,C,]2 E,2 |[M:7/8] [G,,G,]2 [C,E,]2 C, G,,C,, |[M:1/8] F | %7
[M:4/4] [F,,F,]2 [F,A,]2 [G,,G,]2 [F,G,=B,]2 | G,2 D,>=B,, z2 z z/ G/ | %9
[M:9/8] C,2 [CE]- [CE] [G,,F,]2 [C,G,]3 | z z/[K:treble] G/G- G/G<GG/[K:bass] [F,A,F]3 | %11
[M:4/4] [F,,F,]2 [A,C]2 [G,,F,]2 G,2 | C,2 G,,2 z z/ [CE]/ .[E,G,CE]>[CF] | z2 E,2 z2 E,2 | %14
 C,2 G,,2 C,,2 C,2 | [F,,F,]2 [F,A,]2 F,2 F,2 | [C,,C,]2 [E,G,]2 E,2 z z/ E/ | %17
 [G,,G,]2 [G,C]2 G,>[K:treble][G,=B,G] [A,CF]2 | [G,,G,]2 C,2 G,,2 .C,,2 |] %19
V:3
 x8 | C>D (3EDC z2 z C |[M:7/8] x7 |[M:1/8] x |[M:4/4] C>D (3EDC z2 z C |[M:7/8] x7 |[M:1/8] x | %7
[M:4/4] x8 | =B,6 z2 |[M:9/8] x9 | x9 |[M:4/4] x8 | x8 | [CEG]4 [CE]4 | [G,C]8 | z2 [CF]6 | %16
 [Ec]2 z2 G,2 z z/ G/ | [=B,G]>[B,G] z2 C>d c2 | x8 |] %19
V:4
 x8 | z4 z2 G,2 |[M:7/8] x7 |[M:1/8] x |[M:4/4] z4 z2 G,2 |[M:7/8] x7 |[M:1/8] x |[M:4/4] x8 | x8 | %9
[M:9/8] x9 | x9 |[M:4/4] x8 | x8 | z2 G,2 z2 G,2 | z4 z2 E,2 | z4 z2 A,2 | z4 z2 G,2 | x8 | x8 |] %19
V:5
 x8 | x8 |[M:7/8] x7 |[M:1/8] x |[M:4/4] x8 |[M:7/8] x7 |[M:1/8] x |[M:4/4] x8 | z4 G,,4 | %9
[M:9/8] x9 | [C,,C,]2[K:treble] [=B,D]- [B,D] [CE]2[K:bass] z3 |[M:4/4] x8 | z4 C,,2 z2 | %13
 [C,,C,]2 z z/ C/ [C,,C,]2 z z/ =B,/ | x8 | x8 | z4 z2 E,2 | x11/2[K:treble] x5/2 | x8 |] %19

